X: 40285
T: Toichim Na Sean-Ghaodhal
R: polka
M: 2/4
K: Aminor
a2 ag/a/|ba ge|dBg B|dB BA|
a2 ag/a/|ba ge|dBg B|A2 A2||
B|c>d cA|B/A/G/A/ Bd|ed gB|eA AA/B/|
c>d cA|B/A/G/A/ Bd|ed gB|A2A2||

